neru-light-classic/32x32/devices/wiimotedev.svg

<?xml version="1.0" encoding="UTF-8" standalone="no"?>
<svg
   xmlns:dc="http://purl.org/dc/elements/1.1/"
   xmlns:cc="http://creativecommons.org/ns#"
   xmlns:rdf="http://www.w3.org/1999/02/22-rdf-syntax-ns#"
   xmlns:svg="http://www.w3.org/2000/svg"
   xmlns="http://www.w3.org/2000/svg"
   xmlns:sodipodi="http://sodipodi.sourceforge.net/DTD/sodipodi-0.dtd"
   xmlns:inkscape="http://www.inkscape.org/namespaces/inkscape"
   width="32"
   height="32"
   version="1"
   id="svg18"
   sodipodi:docname="wiimotedev.svg"
   inkscape:version="0.92.1 r">
  <metadata
     id="metadata24">
    <rdf:RDF>
      <cc:Work
         rdf:about="">
        <dc:format>image/svg+xml</dc:format>
        <dc:type
           rdf:resource="http://purl.org/dc/dcmitype/StillImage" />
      </cc:Work>
    </rdf:RDF>
  </metadata>
  <defs
     id="defs22" />
  <sodipodi:namedview
     pagecolor="#ffffff"
     bordercolor="#666666"
     borderopacity="1"
     objecttolerance="10"
     gridtolerance="10"
     guidetolerance="10"
     inkscape:pageopacity="0"
     inkscape:pageshadow="2"
     inkscape:window-width="1680"
     inkscape:window-height="965"
     id="namedview20"
     showgrid="false"
     inkscape:zoom="7.375"
     inkscape:cx="0.27118644"
     inkscape:cy="16.949153"
     inkscape:window-x="0"
     inkscape:window-y="0"
     inkscape:window-maximized="1"
     inkscape:current-layer="svg18" />
  <path
     style="opacity:1;fill:#8e8e8e;fill-opacity:1;fill-rule:evenodd;stroke:none;stroke-width:1.03534329;stroke-linecap:round;stroke-linejoin:bevel;stroke-miterlimit:4;stroke-dasharray:none;stroke-dashoffset:0;stroke-opacity:1"
     d="M 22.169922 30.101562 L 24.527344 30.101562 C 27.615995 30.101563 30.101562 27.615995 30.101562 24.527344 L 30.101562 7.4726562 C 30.101563 4.3840054 27.615995 1.8984375 24.527344 1.8984375 L 22.169922 1.8984375 L 22.169922 30.101562 z "
     id="path4494" />
  <path
     style="opacity:1;fill:#8e8e8e;fill-opacity:1;fill-rule:evenodd;stroke:none;stroke-width:1.03534329;stroke-linecap:round;stroke-linejoin:bevel;stroke-miterlimit:4;stroke-dasharray:none;stroke-dashoffset:0;stroke-opacity:1"
     d="M 9.8300781 1.8984375 L 7.4726562 1.8984375 C 4.3840054 1.8984375 1.8984375 4.3840054 1.8984375 7.4726562 L 1.8984375 24.527344 C 1.8984375 27.615995 4.3840054 30.101562 7.4726562 30.101562 L 9.8300781 30.101562 L 9.8300781 1.8984375 z "
     id="path4492" />
  <path
     style="opacity:1;fill:#e6e6e6;fill-opacity:1;fill-rule:evenodd;stroke:none;stroke-width:1.03534329;stroke-linecap:round;stroke-linejoin:bevel;stroke-miterlimit:4;stroke-dasharray:none;stroke-dashoffset:0;stroke-opacity:1"
     d="M 9.8300781 1.8984375 L 9.8300781 30.101562 L 22.169922 30.101562 L 22.169922 1.8984375 L 9.8300781 1.8984375 z "
     id="rect4497-3" />
  <g
     id="g4521"
     transform="matrix(0.83311604,0,0,0.83311604,3.0867014,2.6701434)">
    <rect
       style="fill:#e6e6e6;fill-opacity:1"
       id="rect2"
       transform="rotate(90)"
       ry="1.3"
       rx="1.4"
       y="-22"
       x="2"
       height="13"
       width="28" />
    <path
       id="path4"
       d="m 19,7.8 c -2e-6,-0.3878 -0.3122,-0.7 -0.7,-0.7 l -1.4,1.8e-5 -1.7e-5,-1.4 c 0,-0.3878 -0.312,-0.7 -0.7,-0.7 l -1.4,1.7e-5 c -0.3878,3e-6 -0.7,0.3122 -0.7,0.7 l 1.7e-5,1.4 -1.4,1.8e-5 c -0.388,0 -0.7,0.3122 -0.7,0.7 l 1.8e-5,1.4 c 10e-7,0.3878 0.3122,0.7 0.7,0.7 l 1.4,-1.8e-5 1.8e-5,1.4 c 1e-6,0.3878 0.3122,0.7 0.7,0.7 l 1.4,-1.8e-5 c 0.3878,-2e-6 0.7,-0.3122 0.7,-0.7 l -0.0011,-1.4001 1.3995,-4.4e-5 c 0.38793,7.7e-5 0.70073,-0.3117 0.70067,-0.69959 l -1.9e-5,-1.4 z"
       inkscape:connector-curvature="0"
       style="fill:#5b5b5b" />
    <circle
       id="circle6"
       transform="rotate(90)"
       r="1.5"
       cy="-17.5"
       cx="25.5"
       style="fill:#5b5b5b" />
    <circle
       id="circle8"
       transform="rotate(90)"
       r="1.5"
       cy="-17.5"
       cx="21.5"
       style="fill:#5b5b5b" />
    <circle
       id="circle10"
       transform="rotate(90)"
       r="1.5"
       cy="-13.5"
       cx="25.5"
       style="fill:#5b5b5b" />
    <circle
       id="circle12"
       transform="rotate(90)"
       r="1.5"
       cy="-13.5"
       cx="21.5"
       style="fill:#5b5b5b" />
  </g>
</svg>

<svg xmlns="http://www.w3.org/2000/svg" width="32" height="32" version="1"><path d="M22.17 30.102h2.357a5.561 5.561 0 0 0 5.575-5.575V7.473a5.561 5.561 0 0 0-5.575-5.575H22.17v28.204zM9.83 1.898H7.473a5.561 5.561 0 0 0-5.575 5.575v17.054a5.561 5.561 0 0 0 5.575 5.575H9.83V1.898z" fill="#8e8e8e" fill-rule="evenodd"/><path d="M9.83 1.898v28.204h12.34V1.898H9.83z" fill="#e6e6e6" fill-rule="evenodd"/><g transform="matrix(.83312 0 0 .83312 3.087 2.67)"><rect transform="rotate(90)" ry="1.3" rx="1.4" y="-22" x="2" height="13" width="28" fill="#e6e6e6"/><path d="M19 7.8c0-.388-.312-.7-.7-.7h-1.4V5.7c0-.388-.312-.7-.7-.7h-1.4c-.388 0-.7.312-.7.7v1.4h-1.4c-.388 0-.7.312-.7.7v1.4c0 .388.312.7.7.7h1.4v1.4c0 .388.312.7.7.7h1.4c.388 0 .7-.312.7-.7l-.001-1.4h1.4c.387 0 .7-.312.7-.7V7.8z" fill="#5b5b5b"/><circle transform="rotate(90)" r="1.5" cy="-17.5" cx="25.5" fill="#5b5b5b"/><circle transform="rotate(90)" r="1.5" cy="-17.5" cx="21.5" fill="#5b5b5b"/><circle transform="rotate(90)" r="1.5" cy="-13.5" cx="25.5" fill="#5b5b5b"/><circle transform="rotate(90)" r="1.5" cy="-13.5" cx="21.5" fill="#5b5b5b"/></g></svg>
